X: 77
T: March of the Kings of Laois
B: begged borrowed and stolen
M:3/2
R: march
Q: 1/2=100
K:Dmix
V:1 
|:"D"A4F2 | A4D2| A4F2 | A4D2| "G"B4G2 |  "D"A4F2|"A"G4F2 |
 E4D2|"D"A4F2 |A4D2| A4F2 | A4d2| "G"B4d2 |
"D"A4 GF|"A"G4F2| E4D2| "D"F2>E2D2 |"G"G2>A2B2|"D"A6 |
 A2>G2F2| "C"E2>c2G2|  E2>C2E2| G2>c2G2 |E2>C2E2|"D" D2>E2D2 |
D2>E2D2|D2>E2D2 |D6:||:"G"B4G2 |d4G2| B2>A2G2 |
d2c2B2| "D"A4d2|A2>G2F2|A4d2| A2>B2c2| "G"B4e2 |
"D"d2>B2A2|"G"G2>F2G2 |"A"E2>F2G2| "D"F2>E2D2 |"G"G2>A2B2| "D"A6 |
A2G2F2| "C"E2>c2G2 |E2>C2E2| G2>c2G2 |E2>C2E2| "D"D2>E2D2 |
D2>E2D2|D2>E2D2| D6:|
% abcbook-tune_id 627e2b1f8a8785650c93abab


% abcbook-boost 0
% abcbook-tablature 
% abcbook-transpose 
% abcbook-lastupdated 1652725431111
% abcbook-soundfonts 
% abcbook-repeats 3
% Rhythm March
% Transcriptions Only 1 transcription
% Mode major
% Key G
% Time_signature 6/8
% Has_accompaniment_chords No chords

